assets/img/braze_icons/download-02.svg

<svg fill="none" height="24" viewBox="0 0 24 24" width="24" xmlns="http://www.w3.org/2000/svg"><g fill="#801ed7"><path d="m13 3c0-.55228-.4477-1-1-1s-1 .44772-1 1v11.5858l-4.29289-4.2929c-.39053-.39053-1.02369-.39053-1.41422 0-.39052.3905-.39052 1.0237 0 1.4142l6.00001 6c.3905.3905 1.0237.3905 1.4142 0l6-6c.3905-.3905.3905-1.0237 0-1.4142-.3905-.39053-1.0237-.39053-1.4142 0l-4.2929 4.2929z"/><path d="m2 21c0-.5523.44772-1 1-1h18c.5523 0 1 .4477 1 1s-.4477 1-1 1h-18c-.55228 0-1-.4477-1-1z"/></g></svg>

<svg width="24" height="24" viewBox="0 0 24 24" fill="none" xmlns="http://www.w3.org/2000/svg">
<path d="M13 3C13 2.44772 12.5523 2 12 2C11.4477 2 11 2.44772 11 3V14.5858L6.70711 10.2929C6.31658 9.90237 5.68342 9.90237 5.29289 10.2929C4.90237 10.6834 4.90237 11.3166 5.29289 11.7071L11.2929 17.7071C11.6834 18.0976 12.3166 18.0976 12.7071 17.7071L18.7071 11.7071C19.0976 11.3166 19.0976 10.6834 18.7071 10.2929C18.3166 9.90237 17.6834 9.90237 17.2929 10.2929L13 14.5858V3Z" fill="#801ED7"/>
<path d="M2 21C2 20.4477 2.44772 20 3 20H21C21.5523 20 22 20.4477 22 21C22 21.5523 21.5523 22 21 22H3C2.44772 22 2 21.5523 2 21Z" fill="#801ED7"/>
</svg>
